dist/images/ignore/icon-error.svg

<svg xmlns="http://www.w3.org/2000/svg" width="14" height="12" viewBox="0 0 14 12"><path fill="#fff" d="M14 11.143c0 .147-.038.294-.116.426-.156.266-.446.431-.759.431h-12.25c-.313 0-.603-.165-.759-.431-.077-.132-.116-.281-.116-.43 0-.147.04-.296.12-.429l6.125-10.285c.156-.262.444-.425.755-.425s.599.163.755.425l6.125 10.285c.081.134.12.284.12.433zm-7 0c.604 0 1.094-.48 1.094-1.072 0-.591-.49-1.071-1.094-1.071s-1.094.48-1.094 1.071c0 .592.49 1.072 1.094 1.072zm1.312-7.714h-2.624l.438 4.714h1.75l.436-4.714z"/></svg>

<svg xmlns="http://www.w3.org/2000/svg" width="14" height="12" viewBox="0 0 14 12"><path fill="#fff" d="M14 11.143c0 .147-.038.294-.116.426-.156.265-.446.43-.76.43H.875c-.312 0-.602-.165-.758-.43C.04 11.436 0 11.287 0 11.14c0-.148.04-.297.12-.43L6.245.425C6.4.163 6.69 0 7 0s.6.163.755.425L13.88 10.71c.08.134.12.284.12.433zm-7 0c.604 0 1.094-.48 1.094-1.072C8.094 9.48 7.604 9 7 9s-1.094.48-1.094 1.07c0 .593.49 1.073 1.094 1.073zM8.312 3.43H5.688l.438 4.713h1.75l.436-4.714z"/></svg>
